icons/report-due-date.svg

<svg
  xmlns="http://www.w3.org/2000/svg"
  viewBox="0 0 500 500"
  width="500"
  height="500"
  fill="#ffffff"
>
  <path d="M456.7 282H331a36.7 36.7 0 0 0-36.7 36.7v139.6A36.7 36.7 0 0 0 331 495h125.7a36.8 36.8 0 0 0 36.7-36.7V318.7a36.8 36.8 0 0 0-36.7-36.7zm18.4 176.3a18.5 18.5 0 0 1-18.4 18.4H331a18.5 18.5 0 0 1-18.4-18.4V318.7a18.4 18.4 0 0 1 18.4-18.3h125.7a18.4 18.4 0 0 1 18.4 18.3z" />
  <rect x="70.1" y="136.6" width="43.4" height="40.03" />
  <rect x="173" y="136.6" width="43.4" height="40.03" />
  <rect x="275.9" y="136.6" width="43.4" height="40.03" />
  <rect x="70.1" y="217.7" width="43.4" height="40.03" />
  <rect x="173" y="217.7" width="43.4" height="40.03" />
  <rect x="275.9" y="217.7" width="43.4" height="40.03" />
  <rect x="70.1" y="298.8" width="43.4" height="40.05" />
  <rect x="173" y="298.8" width="43.4" height="40.05" />
  <path d="M452.5 317.6H335.1a9.2 9.2 0 0 0 0 18.3h117.4a9.2 9.2 0 1 0 0-18.3z" />
  <path d="M452.5 358.1H335.1a9.2 9.2 0 0 0 0 18.3h117.4a9.2 9.2 0 1 0 0-18.3z" />
  <path d="M452.5 398.5H335.1a9.2 9.2 0 0 0 0 18.4h117.4a9.2 9.2 0 1 0 0-18.4z" />
  <path d="M394 439h-58.9a9.2 9.2 0 0 0 0 18.4H394a9.2 9.2 0 1 0 0-18.4z" />
  <path d="M23.9 377V96.8a28.6 28.6 0 0 1 28.5-28.5h280.2a28.6 28.6 0 0 1 28.6 28.5v167.9h17.2V96.8A45.8 45.8 0 0 0 332.6 51h-66.4V5H249v46H132.8V5h-17.3v46H52.4A45.8 45.8 0 0 0 6.6 96.8V377a45.8 45.8 0 0 0 45.8 45.8h223.5v-17.2H52.4A28.6 28.6 0 0 1 23.9 377z" />
</svg>

<svg xmlns="http://www.w3.org/2000/svg" viewBox="0 0 500 500">
  <g id="report-due-date">
    <path id="outline2" d="M456.7,282H331a36.7,36.7,0,0,0-36.7,36.7V458.3A36.7,36.7,0,0,0,331,495H456.7a36.8,36.8,0,0,0,36.7-36.7V318.7A36.8,36.8,0,0,0,456.7,282Zm18.4,176.3a18.5,18.5,0,0,1-18.4,18.4H331a18.5,18.5,0,0,1-18.4-18.4V318.7A18.4,18.4,0,0,1,331,300.4H456.7a18.4,18.4,0,0,1,18.4,18.3Z"/>
    <rect id="square1" x="70.1" y="136.6" width="43.4" height="40.03"/>
    <rect id="square2" x="173" y="136.6" width="43.4" height="40.03"/>
    <rect id="square3" x="275.9" y="136.6" width="43.4" height="40.03"/>
    <rect id="square4" x="70.1" y="217.7" width="43.4" height="40.03"/>
    <rect id="square5" x="173" y="217.7" width="43.4" height="40.03"/>
    <rect id="square6" x="275.9" y="217.7" width="43.4" height="40.03"/>
    <rect id="square7" x="70.1" y="298.8" width="43.4" height="40.05"/>
    <rect id="square8" x="173" y="298.8" width="43.4" height="40.05"/>
    <path id="line1" d="M452.5,317.6H335.1a9.2,9.2,0,0,0,0,18.3H452.5a9.2,9.2,0,1,0,0-18.3Z"/>
    <path id="line2" d="M452.5,358.1H335.1a9.2,9.2,0,0,0,0,18.3H452.5a9.2,9.2,0,1,0,0-18.3Z"/>
    <path id="line3" d="M452.5,398.5H335.1a9.2,9.2,0,0,0,0,18.4H452.5a9.2,9.2,0,1,0,0-18.4Z"/>
    <path id="line4" d="M394,439H335.1a9.2,9.2,0,0,0,0,18.4H394a9.2,9.2,0,1,0,0-18.4Z"/>
    <path id="outline" d="M23.9,377V96.8A28.6,28.6,0,0,1,52.4,68.3H332.6a28.6,28.6,0,0,1,28.6,28.5V264.7h17.2V96.8A45.8,45.8,0,0,0,332.6,51H266.2V5H249V51H132.8V5H115.5V51H52.4A45.8,45.8,0,0,0,6.6,96.8V377a45.8,45.8,0,0,0,45.8,45.8H275.9V405.6H52.4A28.6,28.6,0,0,1,23.9,377Z"/>
  </g>
</svg>
